X:1
T:Larvotto, CM
T:Larvotto, CM
T:John David Brunk, 1916
T:Public Domain Courtesy of the Cyber Hymnal™
C:John David Brunk, 1916
Z:Public Domain
Z:Courtesy of the Cyber Hymnal™
%%score ( 1 2 ) ( 3 4 )
L:1/8
Q:1/4=118
M:3/4
K:Ab
V:1 treble 
V:2 treble 
V:3 bass 
V:4 bass 
V:1
 [Ec]2 | ([Ec]2 [DB]2) [CA]2 | (G2 F2) [CE]2 | [CE]4 [B,D]2 | [A,C]4 [A,C]2 | %5
 ([G,B,]2 [B,E]2) [EG]2 | [=DG]4 [DF]2 | E4 E2 | ([Ec]2 [DB]2) [CA]2 | (G2 F2) [CE]2 | %10
 [CE]4 [C=E]2 | [CF]4 [CF]2 | [=DA]4 [DA]2 | [EA]4 [EG]2 | [EA]4 |] %15
V:2
 x2 | x6 | D4 x2 | x6 | x6 | x6 | x6 | E4 E2 | x6 | D4 x2 | x6 | x6 | x6 | x6 | x4 |] %15
V:3
 [A,,E,]2 | [A,,A,]4 [A,,E,]2 | [A,,E,]4 [A,,A,]2 | [E,G,]4 [E,G,]2 | [A,,E,]4 [A,,E,]2 | %5
 (E,2 G,2) [B,,B,]2 | [B,,A,]4 [B,,A,]2 | [E,G,]4 [E,G,]2 | [A,,A,]4 [A,,E,]2 | [A,,E,]4 [A,,A,]2 | %10
 [A,,A,]4 [A,,G,B,]2 | [F,,F,A,]4 [F,A,]2 | (A,2 B,2) [=F,=B,]2 | [E,C]4 [E,D]2 | [A,,A,C]4 |] %15
V:4
 x2 | x6 | x6 | x6 | x6 | B,,4 x2 | x6 | x6 | x6 | x6 | x6 | x6 | _F,4 x2 | x6 | x4 |] %15

